Hatter-kde-dark/actions/22/games-difficult.svg

<?xml version="1.0" encoding="UTF-8"?>
<svg viewBox="0 0 22 22" xmlns="http://www.w3.org/2000/svg">
 <defs id="defs3051">
  <style id="current-color-scheme" type="text/css">.ColorScheme-Text {
        color:#dedede;
      }</style>
 </defs>
 <path class="ColorScheme-Text" d="m15 3v16h4v-16h-4zm1 1h2v14h-2v-14zm-7 4v11h4v-11h-4zm1 1h2v9h-2v-9zm-7 5v5h4v-5h-4zm1 1h2v3h-2v-3z" fill="currentColor"/>
</svg>

<svg xmlns="http://www.w3.org/2000/svg" viewBox="0 0 22 22">
  <defs id="defs3051">
    <style type="text/css" id="current-color-scheme">
      .ColorScheme-Text {
        color:#dedede;
      }
      </style>
  </defs>
 <path 
    style="fill:currentColor;fill-opacity:1;stroke:none" 
    d="M 15 3 L 15 19 L 19 19 L 19 3 L 15 3 z M 16 4 L 18 4 L 18 18 L 16 18 L 16 4 z M 9 8 L 9 19 L 13 19 L 13 8 L 9 8 z M 10 9 L 12 9 L 12 18 L 10 18 L 10 9 z M 3 14 L 3 19 L 7 19 L 7 14 L 3 14 z M 4 15 L 6 15 L 6 18 L 4 18 L 4 15 z "
    class="ColorScheme-Text"
    />  
</svg>
